Numix-Light/16/status/printer-symbolic.svg

<?xml version="1.0" encoding="UTF-8" standalone="no"?>
<svg
   xmlns:dc="http://purl.org/dc/elements/1.1/"
   xmlns:cc="http://creativecommons.org/ns#"
   xmlns:rdf="http://www.w3.org/1999/02/22-rdf-syntax-ns#"
   xmlns:svg="http://www.w3.org/2000/svg"
   xmlns="http://www.w3.org/2000/svg"
   xmlns:sodipodi="http://sodipodi.sourceforge.net/DTD/sodipodi-0.dtd"
   xmlns:inkscape="http://www.inkscape.org/namespaces/inkscape"
   width="16"
   height="16"
   viewBox="0 0 16 16"
   id="svg2"
   version="1.1"
   inkscape:version="0.91 r"
   sodipodi:docname="printer-symbolic.svg">
  <metadata
     id="metadata26">
    <rdf:RDF>
      <cc:Work
         rdf:about="">
        <dc:format>image/svg+xml</dc:format>
        <dc:type
           rdf:resource="http://purl.org/dc/dcmitype/StillImage" />
      </cc:Work>
    </rdf:RDF>
  </metadata>
  <sodipodi:namedview
     pagecolor="#ffffff"
     bordercolor="#666666"
     borderopacity="1"
     objecttolerance="10"
     gridtolerance="10"
     guidetolerance="10"
     inkscape:pageopacity="0"
     inkscape:pageshadow="2"
     inkscape:window-width="640"
     inkscape:window-height="480"
     id="namedview24"
     showgrid="false"
     inkscape:zoom="14.75"
     inkscape:cx="8"
     inkscape:cy="8"
     inkscape:window-x="0"
     inkscape:window-y="0"
     inkscape:window-maximized="0"
     inkscape:current-layer="svg2" />
  <defs
     id="defs4" />
  <path
     style="fill:#353535;fill-opacity:1"
     d="M 4.027344 2.183594 C 3.8125 2.203125 3.636719 2.402344 3.636719 2.617188 L 3.636719 6.925781 L 2.589844 6.925781 C 2.578125 6.925781 2.558594 6.925781 2.546875 6.925781 C 2.347656 6.949219 2.179688 7.148438 2.183594 7.363281 L 2.183594 12.277344 C 2.183594 12.503906 2.378906 12.714844 2.589844 12.714844 L 3.636719 12.714844 L 3.636719 13.382812 C 3.636719 13.609375 3.84375 13.816406 4.074219 13.816406 L 11.925781 13.816406 C 12.15625 13.816406 12.363281 13.609375 12.363281 13.382812 L 12.363281 12.714844 L 13.410156 12.714844 C 13.621094 12.714844 13.816406 12.503906 13.816406 12.277344 L 13.816406 7.363281 C 13.816406 7.136719 13.621094 6.925781 13.410156 6.925781 L 12.363281 6.925781 L 12.363281 3.355469 C 12.074219 3.058594 10.894531 2.472656 10.617188 2.183594 L 4.074219 2.183594 C 4.058594 2.183594 4.042969 2.183594 4.027344 2.183594 Z M 4.363281 2.910156 L 9.816406 2.910156 L 9.816406 4.363281 L 11.636719 4.363281 L 11.636719 6.910156 L 4.363281 6.910156 Z M 2.910156 7.636719 L 13.089844 7.636719 L 13.089844 9.816406 L 2.910156 9.816406 Z M 12.726562 10.910156 C 12.886719 10.910156 13.089844 11.113281 13.089844 11.273438 C 13.089844 11.433594 12.886719 11.636719 12.726562 11.636719 C 12.566406 11.636719 12.363281 11.433594 12.363281 11.273438 C 12.363281 11.113281 12.566406 10.910156 12.726562 10.910156 Z M 4.363281 10.546875 L 11.636719 10.546875 L 11.636719 13.089844 L 4.363281 13.089844 Z "
     id="path22" />
</svg>

<svg xmlns="http://www.w3.org/2000/svg" viewBox="0 0 16 16">
 <path d="m 4.03 2.184 c -0.215 0.02 -0.391 0.219 -0.391 0.434 l 0 4.309 l -1.047 0 c -0.012 0 -0.031 0 -0.043 0 c -0.199 0.023 -0.367 0.223 -0.363 0.438 l 0 4.914 c 0 0.227 0.195 0.438 0.406 0.438 l 1.047 0 l 0 0.668 c 0 0.227 0.207 0.434 0.438 0.434 l 7.852 0 c 0.23 0 0.438 -0.207 0.438 -0.434 l 0 -0.668 l 1.047 0 c 0.211 0 0.406 -0.211 0.406 -0.438 l 0 -4.914 c 0 -0.227 -0.195 -0.438 -0.406 -0.438 l -1.047 0 l 0 -3.57 c -0.289 -0.297 -1.469 -0.883 -1.746 -1.172 l -6.543 0 c -0.016 0 -0.031 0 -0.047 0 m 0.336 0.727 l 5.453 0 l 0 1.453 l 1.82 0 l 0 2.547 l -7.273 0 m -1.453 0.727 l 10.18 0 l 0 2.18 l -10.18 0 m 9.816 1.094 c 0.16 0 0.363 0.203 0.363 0.363 c 0 0.16 -0.203 0.363 -0.363 0.363 c -0.16 0 -0.363 -0.203 -0.363 -0.363 c 0 -0.16 0.203 -0.363 0.363 -0.363 m -8.363 -0.363 l 7.273 0 l 0 2.543 l -7.273 0 Z" style="fill:#353535;fill-opacity:1"/>
</svg>
